outputs/icons/audio_video/microphone_round.svg

<svg xmlns="http://www.w3.org/2000/svg" width="1200" height="1200" fill="none"><g clip-path="url(#a)"><path fill="#000" d="M600 700c83 0 150-67 150-150V250c0-83-67-150-150-150s-150 67-150 150v300c0 83 67 150 150 150m295.5-150c-24.5 0-45 18-49 42.5C826 710 723.5 800 600 800s-226-90-246.5-207.5c-4-24.5-24.5-42.5-49-42.5-30.5 0-54.5 27-50 57C279 757 399 874.5 550 896v104c0 27.5 22.5 50 50 50s50-22.5 50-50V896c151-21.5 271-139 295.5-289 5-30-19.5-57-50-57"/></g><defs><clipPath id="a"><path fill="#fff" d="M0 0h1200v1200H0z"/></clipPath></defs></svg>

<svg width="1200" height="1200" viewBox="0 0 1200 1200" fill="none" xmlns="http://www.w3.org/2000/svg"><g clip-path="url(#clip0_231_5139)"><path d="M600 700C683 700 750 633 750 550V250C750 167 683 100 600 100C517 100 450 167 450 250V550C450 633 517 700 600 700ZM895.5 550C871 550 850.5 568 846.5 592.5C826 710 723.5 800 600 800C476.5 800 374 710 353.5 592.5C349.5 568 328.999 550 304.5 550C274 550 250 577 254.5 607C278.999 757 399 874.5 550 896V1000C550 1027.5 572.5 1050 600 1050C627.5 1050 650 1027.5 650 1000V896C801 874.5 921 757 945.5 607C950.5 577 926 550 895.5 550Z" fill="#1D1E23"/></g><defs><clipPath id="clip0_231_5139"><path width="24" fill="white" d="M0 0H1200V1200H0V0z"/></clipPath></defs></svg>
